X: 2
T: Tsu der Khupe Geyn tune 2   [G,Dfr]
O: Joel Rubin Jewish Music Ensemble
%P: G major, D freygish:
S: email from Steve Rauch
D: Beregovski's Khasene
Z: 2020 Steve Rauch 
Z: 2020 John Chambers <jc:trillian.mit.edu>
M: 2/4
L: 1/16
K: G
"^A"|:\
"G"^A2B2 B2B2 |  B2A2 A2G2 | "G"B8- | BD^CD EFGA |\
"G"B2B2 B2B2 |  B2d2 c2B2 | "D"c3B A4- | A8 || "D"AB c4 c2 |
"D"c2e2 d2c2 | "G"d3c B4  | BcBA G4 | "D"A4 A4 |\
   G2F2 E2F2 | "G"G2FE DCB,A, |1 "G"G,2D2 G2A2 :|2 "G"G,4 F2G2 ||
K: _B_e^F	% Dphr
"^B"||\
"D"A4 d4 | A4 F4 | "Cm"A3G F2E2 | "D"F2E2 D4 |\
"D"D2DE F2G2 | A2B2 A2G2 | "D"A4 AGFG | A8 ||
"D"A4 d4 | A4 F4 | "Cm"A3G F2E2 | "D"F2E2 D4 |\
"Cm"(3C2=B,2C2 (3E2D2E2 | (3F2G2A2 (3G2F2E2 | "D"D8- | D4 z4 |]
